dist/assets/img/svg/icon-dz.svg

<svg width="20" height="20" viewBox="0 0 20 20" fill="none" xmlns="http://www.w3.org/2000/svg">
<path d="M11.9286 11.9286C10.3571 13.55 10.2429 15.5714 10.1071 20C14.2357 20 17.0857 19.9857 18.5571 18.5571C19.9857 17.0857 20 14.1 20 10.1071C15.5714 10.25 13.55 10.3571 11.9286 11.9286ZM0 10.1071C0 14.1 0.0142857 17.0857 1.44286 18.5571C2.91429 19.9857 5.76429 20 9.89286 20C9.75 15.5714 9.64286 13.55 8.07143 11.9286C6.45 10.3571 4.42857 10.2429 0 10.1071ZM9.89286 0C5.77143 0 2.91429 0.0142857 1.44286 1.44286C0.0142857 2.91429 0 5.9 0 9.89286C4.42857 9.75 6.45 9.64286 8.07143 8.07143C9.64286 6.45 9.75714 4.42857 9.89286 0ZM11.9286 8.07143C10.3571 6.45 10.2429 4.42857 10.1071 0C14.2357 0 17.0857 0.0142857 18.5571 1.44286C19.9857 2.91429 20 5.9 20 9.89286C15.5714 9.75 13.55 9.64286 11.9286 8.07143Z" fill="white" fill-opacity="0.7"/>
</svg>

<svg width="20" height="20" fill="none" xmlns="http://www.w3.org/2000/svg"><path d="M11.929 11.929C10.357 13.55 10.243 15.57 10.107 20c4.129 0 6.979-.014 8.45-1.443C19.986 17.086 20 14.1 20 10.107c-4.429.143-6.45.25-8.071 1.822zM0 10.107c0 3.993.014 6.979 1.443 8.45C2.914 19.986 5.764 20 9.893 20c-.143-4.429-.25-6.45-1.822-8.071C6.45 10.357 4.43 10.243 0 10.107zM9.893 0C5.77 0 2.914.014 1.443 1.443.014 2.914 0 5.9 0 9.893c4.429-.143 6.45-.25 8.071-1.822C9.643 6.45 9.757 4.43 9.893 0zm2.036 8.071C10.357 6.45 10.243 4.43 10.107 0c4.129 0 6.979.014 8.45 1.443C19.986 2.914 20 5.9 20 9.893c-4.429-.143-6.45-.25-8.071-1.822z" fill="#fff" fill-opacity=".7"/></svg>
